build/Karasa-Jaga/scalable/actions/sidebar-hide-symbolic.svg

<?xml version="1.0" encoding="UTF-8" standalone="no"?>
<svg
   xmlns:dc="http://purl.org/dc/elements/1.1/"
   xmlns:cc="http://creativecommons.org/ns#"
   xmlns:rdf="http://www.w3.org/1999/02/22-rdf-syntax-ns#"
   xmlns:svg="http://www.w3.org/2000/svg"
   xmlns="http://www.w3.org/2000/svg"
   xmlns:sodipodi="http://sodipodi.sourceforge.net/DTD/sodipodi-0.dtd"
   xmlns:inkscape="http://www.inkscape.org/namespaces/inkscape"
   height="16"
   width="16"
   version="1.1"
   id="svg4"
   sodipodi:docname="sidebar-hide-symbolic.svg"
   inkscape:version="0.92.4 (unknown)">
  <metadata
     id="metadata10">
    <rdf:RDF>
      <cc:Work
         rdf:about="">
        <dc:format>image/svg+xml</dc:format>
        <dc:type
           rdf:resource="http://purl.org/dc/dcmitype/StillImage" />
        <dc:title></dc:title>
      </cc:Work>
    </rdf:RDF>
  </metadata>
  <defs
     id="defs8" />
  <sodipodi:namedview
     pagecolor="#ffffff"
     bordercolor="#666666"
     borderopacity="1"
     objecttolerance="10"
     gridtolerance="10"
     guidetolerance="10"
     inkscape:pageopacity="0"
     inkscape:pageshadow="2"
     inkscape:window-width="1366"
     inkscape:window-height="706"
     id="namedview6"
     showgrid="true"
     inkscape:zoom="20.85965"
     inkscape:cx="9.8261208"
     inkscape:cy="3.2905619"
     inkscape:window-x="0"
     inkscape:window-y="0"
     inkscape:window-maximized="1"
     inkscape:current-layer="svg4">
    <inkscape:grid
       type="xygrid"
       id="grid817" />
  </sodipodi:namedview>
  <path
     d="M 3.25,7.3135 C 3.0945,7.451 3,7.7198 3,8.001 3,8.2822 3.0945,8.551 3.25,8.6885 L 7,12.001 h 1 v -8 l -0.9166,2e-4 z"
     id="path2"
     inkscape:connector-curvature="0"
     style="fill:#bebebe"
     sodipodi:nodetypes="cscccccc" />
  <path
     d="M 2 1.0019531 C 0.7288 1.0019531 0 1.7138031 0 3.0019531 L 0 13.001953 C 0 14.292953 0.7984 15.001953 2 15.001953 L 14 15.001953 C 15.202 15.001953 16 14.292953 16 13.001953 L 16 3.0019531 C 16 1.6120531 15.32205 1.0019531 14 1.0019531 C 10.1132 1.0132531 4.973 1.0019533 2 1.0019531 z M 1 2 L 15 2 L 15 14 L 1 14 L 1 2 z "
     id="path822"
     style="fill:#bebebe;fill-opacity:1" />
</svg>

<svg height="16" width="16" xmlns="http://www.w3.org/2000/svg"><path d="m0 3.001v10c0 1.291.7984 2 2 2h12c1.202 0 2-.709 2-2v-10c0-1.3899-.67795-2-2-2-3.8868.0113-9.027.0000002-12 0-1.2712 0-2 .71185-2 2zm14 0v10h-12v-10zm-10.75 4.3125c-.1555.1375-.25.4063-.25.6875s.0945.55.25.6875l3.75 3.3125h1v-8l-.9166.0002z" fill="#bebebe"/></svg>
